icon/pk/setting-laptop.svg

<svg viewBox="0 0 48 48" fill="none" xmlns="http://www.w3.org/2000/svg" height="1em" width="1em">
  <path d="M21 9H11C9.34315 9 8 10.3431 8 12V33H40V26" stroke="black" stroke-width="4" stroke-linecap="round" stroke-linejoin="round"/>
  <path d="M4 33H44V35C44 38.3137 41.3137 41 38 41H10C6.68629 41 4 38.3137 4 35V33Z" fill="#2F88FF" stroke="black" stroke-width="4" stroke-linejoin="round"/>
  <circle cx="35" cy="14" r="3" stroke="black" stroke-width="4"/>
  <path d="M35 21V17" stroke="black" stroke-width="4" stroke-linecap="round" stroke-linejoin="round"/>
  <path d="M35 11V7" stroke="black" stroke-width="4" stroke-linecap="round" stroke-linejoin="round"/>
  <path d="M28.9378 17.5L32.4019 15.5" stroke="black" stroke-width="4" stroke-linecap="round" stroke-linejoin="round"/>
  <path d="M37.5982 12.5L41.0623 10.5" stroke="black" stroke-width="4" stroke-linecap="round" stroke-linejoin="round"/>
  <path d="M28.9375 10.5L32.4016 12.5" stroke="black" stroke-width="4" stroke-linecap="round" stroke-linejoin="round"/>
  <path d="M37.5982 15.5L41.0623 17.5" stroke="black" stroke-width="4" stroke-linecap="round" stroke-linejoin="round"/>
</svg>

<svg width="48" height="48" fill="none" xmlns="http://www.w3.org/2000/svg"><path d="M21 9H11a3 3 0 0 0-3 3v21h32v-7" stroke="#000" stroke-width="4" stroke-linecap="round" stroke-linejoin="round"/><path d="M4 33h40v2a6 6 0 0 1-6 6H10a6 6 0 0 1-6-6v-2Z" fill="#2F88FF" stroke="#000" stroke-width="4" stroke-linejoin="round"/><circle cx="35" cy="14" r="3" stroke="#000" stroke-width="4"/><path d="M35 21v-4M35 11V7M28.938 17.5l3.464-2M37.598 12.5l3.464-2M28.938 10.5l3.464 2M37.598 15.5l3.464 2" stroke="#000" stroke-width="4" stroke-linecap="round" stroke-linejoin="round"/></svg>
